X: 65
T: Lady Bromes
R:Strathspey
C:Robert Macintosh
S:MacDonald - Skye Collection
N:pg.194
M:C
L:1/8
K:Eb
G|E<C c>=B c>CC>E|D<B, d>c B>B,B,>D|E<CG<c =B>df>a|g>fe>d e<c c>G|
E<C c>=B c>CC>E|D<B, d>c B>B,B,>D|E<C F>D G>EA>F|G<g d>f ecc||
d|(e/d/c) G>c E>cG>c|B<f d>f b>fd>B|(c/d/e/c/) G>c E>cG>c|=B>dG>g e<c c>d|
(e/d/c) g>c G>cE>c|(B/c/d/e/) fd bBdf|g>e d<c a>ge>d|(3gag (3fed (3ecc||


